Resources/Icons/CheckBox Disabled.svg

<?xml version="1.0" encoding="UTF-8" ?>
<!DOCTYPE svg PUBLIC "-//W3C//DTD SVG 1.1//EN" "http://www.w3.org/Graphics/SVG/1.1/DTD/svg11.dtd">
<svg width="512pt" height="512pt" viewBox="0 0 512 512" version="1.1" xmlns="http://www.w3.org/2000/svg">
<g id="#333333ff">
<path fill="#333333" opacity="1.00" d=" M 96.66 43.40 C 199.75 42.45 302.88 43.29 405.99 42.98 C 439.59 41.71 470.14 72.53 469.02 106.02 C 468.99 206.01 468.99 306.00 469.02 405.99 C 470.21 439.49 439.43 470.16 405.92 469.00 C 305.95 469.02 205.98 468.97 106.01 469.02 C 72.54 470.22 41.85 439.42 42.98 405.98 C 43.01 305.99 43.01 206.00 42.98 106.01 C 41.92 75.61 67.00 47.82 96.66 43.40 M 103.68 85.49 C 92.55 87.10 83.98 97.99 85.05 109.21 C 85.03 207.36 84.82 305.52 85.16 403.66 C 84.03 416.70 96.44 427.98 109.18 426.97 C 207.34 426.94 305.51 427.20 403.66 426.84 C 416.70 427.97 427.98 415.56 426.97 402.82 C 426.95 304.65 427.17 206.47 426.86 108.31 C 427.65 95.43 415.71 83.72 402.79 85.05 C 303.09 85.25 203.35 84.38 103.68 85.49 Z" />
</g>
</svg>

<?xml version="1.0" encoding="utf-8"?>
<!-- Generator: Adobe Illustrator 25.2.1, SVG Export Plug-In . SVG Version: 6.00 Build 0)  -->
<svg version="1.1" id="Layer_1" xmlns="http://www.w3.org/2000/svg" xmlns:xlink="http://www.w3.org/1999/xlink" x="0px" y="0px"
	 viewBox="0 0 512 512" style="enable-background:new 0 0 512 512;" xml:space="preserve">
<style type="text/css">
	.st0{fill:#464646;}
</style>
<g id="_x23_333333ff">
	<path class="st0" d="M96.7,43.4c103.1-1,206.2-0.1,309.3-0.4c33.6-1.3,64.2,29.5,63,63c0,100,0,200,0,300
		c1.2,33.5-29.6,64.2-63.1,63c-100,0-199.9,0-299.9,0c-33.5,1.2-64.2-29.6-63-63c0-100,0-200,0-300C41.9,75.6,67,47.8,96.7,43.4
		 M103.7,85.5C92.6,87.1,84,98,85.1,109.2c0,98.2-0.2,196.3,0.1,294.5c-1.1,13,11.3,24.3,24,23.3c98.2,0,196.3,0.2,294.5-0.1
		c13,1.1,24.3-11.3,23.3-24c0-98.2,0.2-196.4-0.1-294.5c0.8-12.9-11.1-24.6-24.1-23.3C303.1,85.2,203.4,84.4,103.7,85.5z"/>
</g>
</svg>
